X:1
T:Title
%%score { ( 1 3 ) | ( 2 4 ) }
L:1/8
M:2/2
K:Ab
V:1 treble nm="Grand Piano"
V:3 treble 
V:2 bass 
V:4 bass 
V:1
 z4 z2[Q:1/4=128] E2 | E2 F2 G2 B2 | A4 E2 A2 | [FA]2 [FA]2 [EG]3 [DF] |[M:3/4] [CE]6 | %5
[M:1/4] [CE]2 |[M:4/4] [DF]2 [DG]2 [EA]2 B2 | c4 [EA]2 [Ec]2 | [EB]2 [Ge]2 [Ge]3 [A=d] | %9
[M:3/4] e6 |[M:1/4] [Be]2 |[M:4/4] e6 z2 | c4 A2 A2 | d2 c2 B2 A2 |[M:3/4] [GB]6 |[M:1/4] [GB]2 | %16
[M:4/4] c2 A2 d2 B2 | e4 [Ad]2 [FB]2 | A2 E2 c3 B |[M:3/4] [CEA]6 |] %20
V:2
 z4 z2 [A,C]2 | [A,C]2 [A,D]2 [A,D]2 [A,D]2 | [A,C]4 [A,C]2 [A,CE]2 | [D,D]2 [D,D]2 [D,D]3 [D,A,] | %4
[M:3/4] [A,,A,]6 |[M:1/4] [A,,A,]2 |[M:4/4] [D,A,]2 [B,,B,]2 [C,A,]2 [E,G,E]2 | %7
 [A,E]4 [C,A,]2 [A,,A,]2 | [B,,G,]2 [B,,B,]2 [B,,B,]3 [B,,B,] |[M:3/4] B,2 z2 z2 |[M:1/4] [E,D]2 | %11
[M:4/4][K:treble] [A,CA]3 [A,C] [A,C]2 [A,E]2 | [A,E]4 [A,CE]2 [CE]2 | %13
 [B,EG]2 [A,EA]2[K:bass] [G,E]2 [F,CF]2 |[M:3/4] [E,E]6 |[M:1/4] [E,E]2 | %16
[M:4/4][K:treble] [A,EA]2 [CE]2 [B,EG]2 [G,D]2 | [A,CA]4[K:bass] [F,D]2 [D,D]2 | %18
 [E,CE]2 [E,A,C]2 [E,A,E]3 [E,DE] |[M:3/4] A,,6 |] %20
V:3
 x8 | x8 | x8 | x8 |[M:3/4] x6 |[M:1/4] x2 |[M:4/4] x8 | x8 | x8 |[M:3/4] G2 A2 B2 |[M:1/4] x2 | %11
[M:4/4] z2 z A A2 c2 | x8 | x8 |[M:3/4] x6 |[M:1/4] x2 |[M:4/4] x8 | x8 | x8 |[M:3/4] x6 |] %20
V:4
 x8 | x8 | x8 | x8 |[M:3/4] x6 |[M:1/4] x2 |[M:4/4] x8 | x8 | x8 |[M:3/4] E,2- [E,-C]2 [E,D]2 | %10
[M:1/4] x2 |[M:4/4][K:treble] x8 | x8 | x4[K:bass] x4 |[M:3/4] x6 |[M:1/4] x2 | %16
[M:4/4][K:treble] x8 | x4[K:bass] x4 | x8 |[M:3/4] x6 |] %20

